coreui/free/cil-equalizer.svg

<svg xmlns="http://www.w3.org/2000/svg" viewBox="0 0 512 512">
  <path fill="var(--ci-primary-color, currentColor)" d="M96,146.025V16H64V146.025a64.009,64.009,0,0,0,0,123.95V496H96V269.975a64.009,64.009,0,0,0,0-123.95ZM80,240a32,32,0,1,1,32-32A32.036,32.036,0,0,1,80,240Z" class="ci-primary"/>
  <path fill="var(--ci-primary-color, currentColor)" d="M272,290.025V16H240V290.025a64.009,64.009,0,0,0,0,123.95V496h32V413.975a64.009,64.009,0,0,0,0-123.95ZM256,384a32,32,0,1,1,32-32A32.036,32.036,0,0,1,256,384Z" class="ci-primary"/>
  <path fill="var(--ci-primary-color, currentColor)" d="M448,82.025V16H416V82.025a64.009,64.009,0,0,0,0,123.95V496h32V205.975a64.009,64.009,0,0,0,0-123.95ZM432,176a32,32,0,1,1,32-32A32.036,32.036,0,0,1,432,176Z" class="ci-primary"/>
</svg>

<svg viewBox="0 0 512 512" xmlns="http://www.w3.org/2000/svg"><g><path d="M96 146.025V16H64v130.025h-.001c-34.23 8.84-54.81 43.75-45.97 77.98 5.82 22.54 23.42 40.14 45.96 45.96v226.02h32V269.95v0c34.22-8.85 54.8-43.76 45.96-77.99 -5.83-22.55-23.43-40.15-45.97-45.97ZM80 240v0c-17.68 0-32-14.33-32-32 0-17.68 14.32-32 32-32 17.67 0 32 14.32 32 32v0c-.02 17.66-14.34 31.98-32 32Z"/><path d="M272 290.025V16h-32v274.025h0c-34.23 8.84-54.81 43.75-45.97 77.98 5.82 22.54 23.42 40.14 45.96 45.96v82.02h32v-82.03 0c34.22-8.85 54.8-43.76 45.96-77.99 -5.83-22.55-23.43-40.15-45.97-45.97Zm-16 93.97v0c-17.68 0-32-14.33-32-32 0-17.68 14.32-32 32-32 17.67 0 32 14.32 32 32v-.001c-.02 17.66-14.34 31.98-32 32Z"/><path d="M448 82.02V15.99h-32v66.02 0c-34.23 8.84-54.81 43.75-45.97 77.98 5.82 22.54 23.42 40.14 45.96 45.96v290.02h32V205.94v-.001c34.22-8.85 54.8-43.76 45.96-77.99 -5.83-22.55-23.43-40.15-45.97-45.97Zm-16 93.97v0c-17.68 0-32-14.33-32-32 0-17.68 14.32-32 32-32 17.67 0 32 14.32 32 32v0c-.02 17.66-14.34 31.98-32 32Z"/></g></svg>
